X: 16177
T: Green Mountain, The
R: reel
M: 4/4
K: Dmajor
|:B|AFF AFE|DFF ABe|fdd edB|Afd edB|
AFF AFE|DFF ABe|fdd edB|AFE D2:|
|:e|faa baf|dfd ede|fdd edB|Afd edB|
faa baf|dfd ede|fdd edB|AFE D2:|

